X:236
T:Steirische Jodler und Taenze Nr. 1 - 48 (34.)
C:traditionell
A:Salzkammergut
S:MIDI erhalten von Christian Amon. Nach einer kopie im besitz von Johann Stoeckl eines manuscriptes. Stoeckl(zitiert von Amon): "diese sammlung wurde 1935 im hause der familie Hohenlohe-Schillingfuerst gefunden. Sie wurde von einem der beiden brueder Steinegger 1866 verfasst. Die originale sind im Ausseer Kammerhofmuseum".
M:3/4
L:1/8
K:G
V:1
Bc |\
db fa gd | fc e3 d | ce Fd c2 | Bd Gd Bc |\
db fa gd | fc e3 d | ce Fd cF | G4 |*
V:2
GA |\
Bg df eB | dA c3 B | Ac DB A2 | GB DB GA |\
Bg df eB | dA c3 B | Ac DB Ad | B4 |*
